X:1
T:Kirn, 11.11.12.11.11
T:Kirn, 11.11.12.11.11
T:John P. Taylor (1871-1936)
C:John P. Taylor (1871-1936)
%%score ( 1 2 ) ( 3 4 )
L:1/8
Q:1/4=115
M:4/4
K:A
V:1 treble 
V:2 treble 
V:3 bass 
V:4 bass 
V:1
 [CE]2 | [EA]4 [EA]2 [FB]2 | [EG]4 [EA]2 [DF]2 | [DE]4 [CA]2 [EB]2 | [Ec]6 [^Ec]2 | %5
 ([FB]2 [Ec]2) [Fd]2 [Ge]2 | c3 (z B) [EA]2 [EA]2 | G4 [^DA]2 [DF]2 | E6"^Unison" E2 | %9
 [CA]4 A2 B2 | (c3 B) A2 F2 x2 | B4 B2 [EFc]2 | (d3 c) [EGB]2 x2 |"^Harmony" [EB]2 | %14
 [Ee]4 [Ae]2 [Gd]2 | ([Ac]3 [GB]) A2 [CA]2 | [Fd]4 [Ec]2 [EB]2 | [Ee]6 E2 | (F2 G2) [EA]2 [EB]2 | %19
 (c2 d2) !fermata![Ae]2 A2 | c4 [GB]2 [Gc]2 | [EA]6 |] %22
V:2
 x2 | x8 | x8 | x8 | x8 | x8 | A2 E2 x5 | (E2 FE) x4 | E6 E2 | x4 E4 | E6 x4 | F6 x2 | [DF]4 x4 | %13
 x2 | x8 | x4 A2 x2 | x8 | x6 E2 | E4 x4 | A4 A2 x2 | (A2 F2) x4 | x6 |] %22
V:3
 [A,,A,]2 | [C,A,]4 [A,,C]2 [D,D]2 | B,4 [C,A,]2 [D,A,]2 | (A,2 G,2) F,2 [E,G,]2 | %4
 [A,,A,]6 [C,G,]2 | ([D,F,]2 [C,^A,]2) [B,,B,]2 [E,B,]2 | (A,3 B,) [A,,C]2 [C,A,]2 x | %7
 [B,,B,]4 [B,,F,]2 [B,,A,]2 | [E,G,]6 z2 | [F,A,]4 [C,A,]2 [E,G,]2 | C6 [A,,A,]2 z2 | %11
 B,6 [C,^A,]2 | B,6 E,2 | [D,G,]2 | [C,A,]4 C2 [B,E]2 | ([A,E]3 [E,D]) [F,C]2 [F,A,]2 | %16
 [D,A,]4 [E,A,]2 [D,G,]2 | [C,A,]6 [C,A,]2 | ([D,A,]2 [E,D]2) [F,C]2 [G,E]2 | %19
 E4 !fermata![CE]2 [F,^D]2 | [E,E]4 [E,D]2 [E,D]2 | [A,,C]6 |] %22
V:4
 x2 | x8 | (E,2 D,2) x4 | E,4 F,2 x2 | x8 | x8 | A,4 x5 | x8 | x8 | x8 | A,4- x6 | D,2 E,2 D,2 x2 | %12
 B,,4 x4 | x2 | x4 C2 x2 | x8 | x8 | x8 | x8 | (A,2 B,2) x4 | x8 | x6 |] %22

